FINK
CUT[DER JAEGER IN DEM GRUENEN WALD]
REG[Europa, Mitteleuropa, Deutschland]
KEY[F0655  08  C 4/4]
MEL[5_  +1_.76_5_  6_.54_
    3_  5_5_6_7_  +1_+3_+2_.7  +1__0_
    5_  +1_.76_5_  6_.54_
    3_  5_5_6_7_  +1_+3_+2_.7  +1__0_
    +1_  7_+2_+2_7_  +1_.+2+3_
    +1_  7_+2_+2_7_  +1_.+2+3_
    5_  +1_.76_5_  6_.54_
    3_  5_5_6_7_  +1_+3_+2_.7  +1__0_ //] >>
FCT[Staende -, Jaeger - Lied, Liebe]
